svgs/light/brackets-square.svg

<svg xmlns="http://www.w3.org/2000/svg" viewBox="0 0 448 512"><!-- Font Awesome Pro 6.0.0-alpha2 by @fontawesome - https://fontawesome.com License - https://fontawesome.com/license (Commercial License) --><path d="M400 32H304C295.178 32 288 39.178 288 48S295.178 64 304 64H400C408.822 64 416 71.178 416 80V432C416 440.822 408.822 448 400 448H304C295.178 448 288 455.178 288 464S295.178 480 304 480H400C426.467 480 448 458.467 448 432V80C448 53.533 426.467 32 400 32ZM48 64H144C152.822 64 160 56.822 160 48S152.822 32 144 32H48C21.533 32 0 53.533 0 80V432C0 458.467 21.533 480 48 480H144C152.822 480 160 472.822 160 464S152.822 448 144 448H48C39.178 448 32 440.822 32 432V80C32 71.178 39.178 64 48 64Z"/></svg>

<svg xmlns="http://www.w3.org/2000/svg" viewBox="0 0 448 512"><!--! Font Awesome Pro 6.3.0 by @fontawesome - https://fontawesome.com License - https://fontawesome.com/license (Commercial License) Copyright 2023 Fonticons, Inc. --><path d="M400 32h-96C295.2 32 288 39.18 288 48S295.2 64 304 64h96C408.8 64 416 71.18 416 80v352c0 8.822-7.178 16-16 16h-96c-8.822 0-16 7.178-16 16s7.178 16 16 16h96c26.47 0 48-21.53 48-48v-352C448 53.53 426.5 32 400 32zM48 64h96C152.8 64 160 56.82 160 48S152.8 32 144 32h-96C21.53 32 0 53.53 0 80v352C0 458.5 21.53 480 48 480h96C152.8 480 160 472.8 160 464S152.8 448 144 448h-96C39.18 448 32 440.8 32 432v-352C32 71.18 39.18 64 48 64z"/></svg>
